apps/trade/public/tokens/xrp.svg

<svg width="24" height="24" viewBox="0 0 24 24" fill="none" xmlns="http://www.w3.org/2000/svg">
    <rect width="24" height="24" rx="12" fill="white" />
    <g clip-path="url(#xrp_clip0_10065_64190)">
        <path
            d="M17.6562 5.37927H19.9687L15.1562 10.1412C13.4134 11.8647 10.5877 11.8647 8.84367 10.1412L4.0293 5.37927H6.34367L9.99992 8.99661C10.5326 9.5213 11.2506 9.81543 11.9985 9.81543C12.7465 9.81543 13.4644 9.5213 13.9971 8.99661L17.6562 5.37927Z"
            fill="#23292F" />
        <path
            d="M6.31406 18.6207H4L8.84375 13.8294C10.5866 12.1059 13.4122 12.1059 15.1562 13.8294L20 18.6207H17.6875L14 14.974C13.4673 14.4493 12.7494 14.1552 12.0014 14.1552C11.2534 14.1552 10.5355 14.4493 10.0028 14.974L6.31406 18.6207Z"
            fill="#23292F" />
    </g>
    <defs>
        <clipPath id="xrp_clip0_10065_64190">
            <rect width="16" height="13.2414" fill="white" transform="translate(4 5.37927)" />
        </clipPath>
    </defs>
</svg>

<svg width="24" height="24" fill="none" xmlns="http://www.w3.org/2000/svg">
    <rect width="24" height="24" rx="12" fill="#fff"/>
    <g clip-path="url(#a)" fill="#23292F">
        <path d="M17.656 5.38h2.313l-4.813 4.761a4.5 4.5 0 0 1-6.312 0L4.029 5.38h2.315L10 8.997a2.848 2.848 0 0 0 3.997 0l3.66-3.618ZM6.314 18.62H4l4.844-4.79a4.5 4.5 0 0 1 6.312 0L20 18.62h-2.313L14 14.975a2.848 2.848 0 0 0-3.997 0l-3.689 3.647Z"/>
    </g>
    <defs>
        <clipPath id="a">
            <path fill="#fff" d="M4 5.38h16v13.24H4z"/>
        </clipPath>
    </defs>
</svg>
